src/icons/svgs/24/comment.svg

<svg width="24" height="24" viewBox="0 0 24 24" fill="none" xmlns="http://www.w3.org/2000/svg">
<path d="M7.61032 10.0933C6.91651 10.0933 6.35597 10.6627 6.35597 11.3404C6.35597 12.0862 6.91651 12.6596 7.61032 12.6596C8.30413 12.6596 8.82938 12.0882 8.82938 11.3765C8.82938 10.6647 8.30805 10.0933 7.61032 10.0933ZM12.0005 10.0573C11.3048 10.0573 10.7815 10.6286 10.7815 11.3404C10.7815 12.0521 11.34 12.5874 12.0005 12.5874C12.661 12.5874 13.2196 12.016 13.2196 11.3404C13.2196 10.6647 12.6983 10.0573 12.0005 10.0573ZM16.3907 10.0933C15.695 10.0933 15.1717 10.6647 15.1717 11.3765C15.1717 12.0882 15.7302 12.6596 16.3907 12.6596C17.0865 12.6596 17.6447 12.0882 17.6447 11.3765C17.6451 10.6627 17.0885 10.0933 16.3907 10.0933ZM12.0005 3C6.45789 3 2.00105 6.73393 2.00105 11.3404C2.00105 13.2499 2.78148 14.9993 4.07503 16.4048C3.49215 17.9886 2.277 19.3271 2.2574 19.3419C1.99775 19.6226 1.9292 20.0336 2.07615 20.3845C2.19382 20.7674 2.52944 21 2.90653 21C5.31683 21 7.18306 19.9675 8.35901 19.1455C9.49066 19.5063 10.7172 19.7169 12.0005 19.7169C17.5432 19.7169 22 15.9825 22 11.4126C22 6.84259 17.5432 3 12.0005 3ZM12.0005 17.7922C10.952 17.7922 9.91831 17.6268 8.92895 17.3062L8.03719 17.0205L7.27321 17.5716C6.71464 17.9774 5.94557 18.4289 5.01971 18.7345C5.30875 18.2485 5.58298 17.7019 5.79857 17.1205L6.21486 15.9978L5.40659 15.1208C4.7022 14.3477 3.84964 13.0686 3.84964 11.3765C3.84964 7.83783 7.50448 4.96079 11.9676 4.96079C16.4307 4.96079 20.0856 7.83783 20.0856 11.3765C20.0856 14.9151 16.5005 17.7922 12.0005 17.7922Z" fill="black"/>
</svg>

<svg width="24" height="24" viewBox="0 0 24 24" xmlns="http://www.w3.org/2000/svg">
    <path d="M7.61 10.093c-.693 0-1.254.57-1.254 1.247 0 .746.56 1.32 1.254 1.32s1.22-.572 1.22-1.284c0-.711-.522-1.283-1.22-1.283zm4.39-.036c-.695 0-1.219.572-1.219 1.283 0 .712.559 1.247 1.22 1.247.66 0 1.219-.571 1.219-1.247 0-.675-.522-1.283-1.22-1.283zm4.39.036c-.695 0-1.218.572-1.218 1.284 0 .711.558 1.283 1.219 1.283.696 0 1.254-.572 1.254-1.284 0-.713-.556-1.283-1.254-1.283zM12 3c-5.542 0-9.999 3.734-9.999 8.34 0 1.91.78 3.66 2.074 5.065-.583 1.584-1.798 2.922-1.818 2.937a.982.982 0 0 0-.18 1.043.857.857 0 0 0 .83.615c2.41 0 4.276-1.032 5.452-1.855 1.132.361 2.358.572 3.642.572 5.542 0 9.999-3.734 9.999-8.304S17.543 3 12 3zm0 14.792a9.952 9.952 0 0 1-3.071-.486l-.892-.286-.764.552a8.317 8.317 0 0 1-2.253 1.163 9.963 9.963 0 0 0 .779-1.614l.416-1.123-.808-.877c-.705-.773-1.557-2.052-1.557-3.745 0-3.538 3.654-6.415 8.118-6.415 4.463 0 8.118 2.877 8.118 6.415 0 3.54-3.585 6.416-8.085 6.416z"/>
</svg>
